; generated by SuperSlicer 2.4 on 2023-07-13 at 15:06:42 UTC


;
;

;
;
; 

; external perimeters extrusion width = 0.46mm
; perimeters extrusion width = 0.46mm
; infill extrusion width = 0.46mm
; solid infill extrusion width = 0.56mm
; top infill extrusion width = 0.40mm
; support material extrusion width = 0.46mm
; first layer extrusion width = 0.50mm

; object:{"name":"75mm_backplate","id":"75mm_backplate.stl id:0 copy 0","object_center":[112.500001,115.000000,0.000000],"boundingbox_center":[112.500001,115.000000,6.035695],"boundingbox_size":[131.149836,131.149836,12.071390]}
; plater:{"center":[112.500001,115.000000,0.000000],"boundingbox_center":[112.500001,115.000000,6.035695],"boundingbox_size":[131.149836,131.149836,12.071390]}

M73 P0 R62


; Pre-Processed for Cancel-Object support by preprocess_cancellation v0.2.0
; 1 known objects
EXCLUDE_OBJECT_DEFINE NAME=75mm_backplate_stl_id_0_copy_0 CENTER=112.597,114.873 POLYGON=[[47.157,49.657],[47.157,180.343],[177.843,180.343],[177.843,49.657]]
;TYPE:Custom
; custom gcode: start_gcode
;M190 S50
;M109 S35 ; uncomment to remove set&wait temp gcode added automatically after this start gcode
;print_start EXTRUDER_TEMP=190 BED_TEMP=63 CHAMBER=35

SET_PRINT_STATS_INFO TOTAL_LAYER=65
print_start EXTRUDER_TEMP=190 BED_TEMP=63 CHAMBER=35 AREA_START=38.5698,41.0698 AREA_END=186.43,188.93
; custom gcode end: start_gcode
M107
G21 ; set units to millimeters
G90 ; use absolute coordinates
M83 ; use relative distances for extrusion
; custom gcode: start_filament_gcode
; Filament gcode
; Macro syntax: https://help.prusa3d.com/article/macros_1775

; Set pressure advance per-filament
;SET_PRESSURE_ADVANCE ADVANCE=0.0x

; Set pressure advance per-filament for different nozzle sizes
;SET_PRESSURE_ADVANCE ADVANCE=0.0x
;

; custom gcode end: start_filament_gcode
;_TOOLCHANGE 0
M104 S190 ; set temperature
M109 S190 ; set temperature and wait for it to be reached
M190 S63 ; set bed temperature and wait for it to be reached
;LAYER_CHANGE
;Z:0.2
;HEIGHT:0.2
; custom gcode: before_layer_gcode
TIMELAPSE_TAKE_FRAME
; custom gcode end: before_layer_gcode

G1 Z0.2 F15000
; custom gcode: layer_gcode
;

SET_PRINT_STATS_INFO CURRENT_LAYER=1
; custom gcode end: layer_gcode

G92 E0
M73 P3 R60
G1 E-0.9 F1800
M204 S1500
G1 X73.485 Y73.485 F15000
G1 E0.9 F1800
;TYPE:Skirt
;WIDTH:0.46
G1 X43.76 Y103.211 E1.32671
G1 X41.515 Y106.08 E0.11495
G1 X40.987 Y106.994 E0.03331
G1 X39.697 Y110.109 E0.10643
G1 X39.424 Y111.129 E0.0333
G1 X38.983 Y114.472 E0.10643
G1 X38.983 Y115.528 E0.03331
G1 X39.424 Y118.871 E0.10643
G1 X39.697 Y119.891 E0.03331
G1 X40.987 Y123.006 E0.10643
G1 X41.515 Y123.92 E0.03331
G1 X43.76 Y126.789 E0.11495
G1 X100.711 Y183.74 E2.54183
G1 X103.58 Y185.985 E0.11495
G1 X104.494 Y186.513 E0.03331
G1 X107.609 Y187.803 E0.10643
G1 X108.629 Y188.077 E0.03331
G1 X111.972 Y188.517 E0.10643
G1 X113.028 Y188.517 E0.03331
G1 X116.371 Y188.076 E0.10643
G1 X117.391 Y187.803 E0.03331
G1 X120.506 Y186.513 E0.10643
G1 X121.42 Y185.985 E0.03331
G1 X124.289 Y183.74 E0.11495
G1 X181.24 Y126.789 E2.54183
M73 P3 R59
G1 X183.485 Y123.92 E0.11495
G1 X184.013 Y123.006 E0.03331
G1 X185.303 Y119.891 E0.10643
G1 X185.577 Y118.871 E0.03331
G1 X186.017 Y115.528 E0.10643
G1 X186.017 Y114.472 E0.03331
G1 X185.577 Y111.129 E0.10643
G1 X185.303 Y110.109 E0.03331
G1 X184.013 Y106.994 E0.10643
G1 X183.485 Y106.08 E0.03331
G1 X181.24 Y103.211 E0.11495
G1 X124.289 Y46.26 E2.54183
G1 X121.42 Y44.015 E0.11495
G1 X120.506 Y43.487 E0.03331
G1 X117.391 Y42.197 E0.10643
G1 X116.371 Y41.924 E0.03331
G1 X113.028 Y41.483 E0.10643
G1 X111.972 Y41.483 E0.03331
G1 X108.629 Y41.924 E0.10643
G1 X107.609 Y42.197 E0.0333
G1 X104.494 Y43.487 E0.10643
G1 X103.58 Y44.015 E0.03331
G1 X100.711 Y46.26 E0.11495
G1 X73.485 Y73.485 E1.21513
G1 X73.78 Y73.78 F15000
G1 F1800
G1 X44.054 Y103.506 E1.32671
G1 X41.846 Y106.334 E0.11323
G1 X41.373 Y107.153 E0.02987
G1 X40.082 Y110.269 E0.10643
G1 X39.837 Y111.183 E0.02987
G1 X39.397 Y114.527 E0.10643
G1 X39.397 Y115.473 E0.02987
G1 X39.837 Y118.817 E0.10643
G1 X40.082 Y119.731 E0.02987
G1 X41.373 Y122.847 E0.10643
G1 X41.846 Y123.666 E0.02987
G1 X44.054 Y126.494 E0.11323
G1 X101.006 Y183.446 E2.54183
G1 X103.834 Y185.654 E0.11323
G1 X104.653 Y186.127 E0.02987
G1 X107.769 Y187.418 E0.10643
G1 X108.683 Y187.663 E0.02987
G1 X112.027 Y188.103 E0.10643
G1 X112.973 Y188.103 E0.02987
G1 X116.317 Y187.663 E0.10643
G1 X117.231 Y187.418 E0.02987
G1 X120.347 Y186.128 E0.10643
G1 X121.166 Y185.654 E0.02987
G1 X123.994 Y183.446 E0.11323
G1 X180.946 Y126.494 E2.54183
G1 X183.154 Y123.666 E0.11323
G1 X183.628 Y122.847 E0.02987
G1 X184.918 Y119.731 E0.10643
G1 X185.163 Y118.817 E0.02987
G1 X185.603 Y115.473 E0.10643
G1 X185.603 Y114.527 E0.02987
G1 X185.163 Y111.183 E0.10643
G1 X184.918 Y110.269 E0.02987
G1 X183.627 Y107.153 E0.10643
G1 X183.154 Y106.334 E0.02987
G1 X180.946 Y103.506 E0.11323
G1 X123.994 Y46.554 E2.54183
G1 X121.166 Y44.346 E0.11323
G1 X120.347 Y43.873 E0.02987
G1 X117.231 Y42.582 E0.10643
G1 X116.317 Y42.337 E0.02987
G1 X112.973 Y41.897 E0.10643
G1 X112.027 Y41.897 E0.02987
G1 X108.683 Y42.337 E0.10643
G1 X107.769 Y42.582 E0.02987
G1 X104.653 Y43.872 E0.10643
G1 X103.834 Y44.346 E0.02987
G1 X101.006 Y46.554 E0.11323
G1 X73.78 Y73.78 E1.21513
G1 X74.075 Y74.075 F15000
M73 P4 R59
G1 F1800
G1 X44.349 Y103.801 E1.32671
G1 X42.177 Y106.588 E0.11151
G1 X41.758 Y107.313 E0.02643
G1 X40.467 Y110.429 E0.10643
G1 X40.251 Y111.238 E0.02643
G1 X39.81 Y114.581 E0.10643
G1 X39.81 Y115.419 E0.02643
G1 X40.251 Y118.762 E0.10643
G1 X40.467 Y119.571 E0.02643
G1 X41.758 Y122.687 E0.10643
G1 X42.177 Y123.412 E0.02643
G1 X44.349 Y126.199 E0.11151
G1 X101.301 Y183.151 E2.54183
G1 X104.088 Y185.323 E0.11151
G1 X104.813 Y185.742 E0.02643
G1 X107.929 Y187.033 E0.10643
G1 X108.738 Y187.25 E0.02643
G1 X112.081 Y187.69 E0.10643
G1 X112.919 Y187.69 E0.02643
G1 X116.262 Y187.249 E0.10643
G1 X117.071 Y187.033 E0.02643
G1 X120.187 Y185.742 E0.10643
G1 X120.912 Y185.323 E0.02644
G1 X123.699 Y183.151 E0.11151
G1 X180.651 Y126.199 E2.54183
G1 X182.823 Y123.412 E0.11151
G1 X183.242 Y122.687 E0.02644
G1 X184.533 Y119.571 E0.10643
G1 X184.749 Y118.762 E0.02643
G1 X185.19 Y115.419 E0.10643
G1 X185.19 Y114.581 E0.02643
G1 X184.749 Y111.238 E0.10643
G1 X184.533 Y110.429 E0.02643
G1 X183.242 Y107.313 E0.10643
G1 X182.823 Y106.588 E0.02643
G1 X180.651 Y103.801 E0.11151
G1 X123.699 Y46.849 E2.54183
G1 X120.912 Y44.677 E0.11151
G1 X120.187 Y44.258 E0.02643
G1 X117.071 Y42.967 E0.10643
G1 X116.262 Y42.751 E0.02643
G1 X112.919 Y42.31 E0.10643
G1 X112.081 Y42.31 E0.02644
G1 X108.738 Y42.751 E0.10643
G1 X107.929 Y42.967 E0.02643
G1 X104.813 Y44.258 E0.10643
G1 X104.088 Y44.677 E0.02643
G1 X101.301 Y46.849 E0.11151
G1 X74.075 Y74.075 E1.21513
G1 E-0.9
; acceleration to travel
M204 S3500
G1 X75.946 Y75.946 F15000
; decel to extrusion
M204 S1500
G1 X76.748 Y76.748
; end travel
G1 E0.9 F1800
;WIDTH:0.5
G1 X103.862 Y49.634 E1.32619
G1 X106.205 Y47.828 E0.10232
G1 X108.98 Y46.623 E0.10463
G1 X109.634 Y46.446 E0.02342
G1 X112.169 Y46.112 E0.08844
G1 X112.805 Y46.11 E0.022
G1 X115.656 Y46.509 E0.09956
G1 X118.352 Y47.589 E0.10044
G1 X118.939 Y47.927 E0.02346
G1 X121.139 Y49.636 E0.09631
G1 X177.866 Y106.362 E2.77461
G1 X179.672 Y108.705 E0.10232
G1 X180.877 Y111.481 E0.10465
G1 X181.057 Y112.147 E0.02386
G1 X181.402 Y115.033 E0.10054
G1 X181.024 Y118.029 E0.10444
G1 X179.913 Y120.847 E0.10475
G1 X179.573 Y121.439 E0.02363
G1 X177.864 Y123.639 E0.09632
G1 X121.138 Y180.366 E2.77461
G1 X118.795 Y182.172 E0.10232
G1 X116.019 Y183.377 E0.10466
G1 X115.353 Y183.557 E0.02386
G1 X112.467 Y183.902 E0.10054
G1 X109.471 Y183.524 E0.10444
G1 X106.653 Y182.413 E0.10475
G1 X106.061 Y182.073 E0.02363
G1 X103.861 Y180.364 E0.09632
G1 X47.134 Y123.638 E2.77461
G1 X45.328 Y121.295 E0.10232
G1 X44.123 Y118.519 E0.10466
G1 X43.943 Y117.853 E0.02386
G1 X43.598 Y114.967 E0.10054
G1 X43.976 Y111.971 E0.10444
G1 X45.087 Y109.153 E0.10474
G1 X45.427 Y108.561 E0.02363
G1 X47.136 Y106.361 E0.09632
G1 X76.748 Y76.748 E1.44842
G1 X77.072 Y77.072 F15000
G1 F1800
G1 X104.175 Y49.968 E1.32568
G1 X106.462 Y48.208 E0.0998
G1 X109.146 Y47.049 E0.10113
G1 X109.708 Y46.897 E0.02014
G1 X112.214 Y46.567 E0.08741
G1 X112.758 Y46.565 E0.0188
G1 X115.565 Y46.958 E0.09802
G1 X118.166 Y48.007 E0.097
G1 X118.672 Y48.298 E0.02019
G1 X120.826 Y49.969 E0.09428
G1 X177.532 Y106.675 E2.7736
G1 X179.292 Y108.962 E0.0998
G1 X180.451 Y111.647 E0.10115
G1 X180.605 Y112.218 E0.02048
G1 X180.945 Y115.004 E0.09706
G1 X180.574 Y117.943 E0.10247
G1 X179.495 Y120.663 E0.1012
G1 X179.202 Y121.171 E0.02029
G1 X177.531 Y123.326 E0.09428
G1 X120.825 Y180.032 E2.7736
G1 X118.538 Y181.792 E0.0998
G1 X115.853 Y182.951 E0.10115
G1 X115.282 Y183.105 E0.02048
G1 X112.496 Y183.445 E0.09706
G1 X109.557 Y183.074 E0.10247
G1 X106.837 Y181.994 E0.1012
G1 X106.329 Y181.702 E0.02029
G1 X104.174 Y180.031 E0.09428
G1 X47.468 Y123.325 E2.7736
M73 P5 R59
G1 X45.708 Y121.038 E0.0998
G1 X44.549 Y118.353 E0.10115
G1 X44.395 Y117.782 E0.02048
G1 X44.055 Y114.996 E0.09706
G1 X44.426 Y112.057 E0.10247
G1 X45.506 Y109.337 E0.10119
G1 X45.798 Y108.829 E0.02029
G1 X47.469 Y106.674 E0.09429
G1 X77.072 Y77.072 E1.44792
M73 P5 R58
G1 X77.395 Y77.395 F15000
G1 F1800
G1 X104.488 Y50.302 E1.32516
G1 X106.718 Y48.588 E0.09727
G1 X109.312 Y47.475 E0.09761
G1 X109.783 Y47.348 E0.0169
G1 X112.259 Y47.022 E0.08638
G1 X112.712 Y47.02 E0.01564
G1 X115.42 Y47.392 E0.09455
G1 X117.98 Y48.425 E0.09548
G1 X118.404 Y48.669 E0.01692
G1 X120.513 Y50.302 E0.09225
G1 X177.198 Y106.988 E2.77258
G1 X178.912 Y109.218 E0.09727
G1 X180.025 Y111.812 E0.09762
G1 X180.153 Y112.291 E0.01715
G1 X180.488 Y114.975 E0.09356
G1 X180.124 Y117.857 E0.10047
G1 X179.076 Y120.478 E0.09763
G1 X178.831 Y120.904 E0.01699
G1 X177.198 Y123.013 E0.09225
G1 X120.512 Y179.698 E2.77258
G1 X118.283 Y181.412 E0.09727
G1 X115.688 Y182.525 E0.09762
G1 X115.209 Y182.653 E0.01715
G1 X112.525 Y182.988 E0.09356
G1 X109.643 Y182.624 E0.10047
G1 X107.022 Y181.576 E0.09763
G1 X106.596 Y181.331 E0.01699
G1 X104.487 Y179.698 E0.09225
G1 X47.802 Y123.012 E2.77259
G1 X46.088 Y120.783 E0.09727
G1 X44.975 Y118.188 E0.09762
G1 X44.847 Y117.709 E0.01715
G1 X44.512 Y115.025 E0.09356
G1 X44.876 Y112.143 E0.10047
G1 X45.924 Y109.522 E0.09762
G1 X46.169 Y109.096 E0.01699
G1 X47.802 Y106.987 E0.09225
G1 X77.395 Y77.395 E1.44742
G1 X77.718 Y77.718 F15000
G1 F1800
G1 X104.801 Y50.636 E1.32465
G1 X106.973 Y48.968 E0.09473
G1 X109.476 Y47.902 E0.09408
G1 X109.858 Y47.799 E0.01368
G1 X112.305 Y47.477 E0.08536
G1 X112.665 Y47.475 E0.01247
G1 X115.329 Y47.841 E0.093
G1 X117.794 Y48.842 E0.09199
G1 X118.137 Y49.04 E0.0137
G1 X120.2 Y50.636 E0.09021
G1 X176.864 Y107.301 E2.77157
G1 X178.532 Y109.473 E0.09473
G1 X179.598 Y111.976 E0.09409
G1 X179.702 Y112.363 E0.01386
G1 X180.031 Y115.003 E0.09202
G1 X179.675 Y117.77 E0.09648
G1 X178.658 Y120.292 E0.09406
G1 X178.46 Y120.637 E0.01373
G1 X176.864 Y122.7 E0.09021
G1 X120.199 Y179.364 E2.77157
G1 X118.027 Y181.032 E0.09473
G1 X115.524 Y182.098 E0.09409
G1 X115.137 Y182.202 E0.01386
G1 X112.497 Y182.531 E0.09202
G1 X109.73 Y182.175 E0.09648
G1 X107.208 Y181.158 E0.09406
G1 X106.863 Y180.96 E0.01373
G1 X104.8 Y179.364 E0.09021
G1 X48.136 Y122.699 E2.77157
G1 X46.468 Y120.527 E0.09473
G1 X45.402 Y118.024 E0.09409
G1 X45.298 Y117.637 E0.01386
G1 X44.969 Y114.997 E0.09202
G1 X45.325 Y112.23 E0.09648
G1 X46.342 Y109.708 E0.09406
G1 X46.54 Y109.363 E0.01373
G1 X48.136 Y107.3 E0.09021
G1 X77.718 Y77.718 E1.44692
G1 X78.041 Y78.041 F15000
G1 F1800
G1 X105.113 Y50.969 E1.32414
G1 X107.179 Y49.377 E0.0902
G1 X109.64 Y48.329 E0.09252
G1 X109.932 Y48.25 E0.01047
G1 X112.351 Y47.932 E0.08435
G1 X112.62 Y47.93 E0.00933
G1 X115.184 Y48.275 E0.08947
G1 X117.607 Y49.26 E0.09045
G1 X117.869 Y49.411 E0.01048
G1 X119.887 Y50.969 E0.08816
G1 X176.531 Y107.613 E2.77055
G1 X178.123 Y109.679 E0.0902
G1 X179.171 Y112.14 E0.09253
G1 X179.25 Y112.435 E0.01056
G1 X179.574 Y115.031 E0.09046
G1 X179.225 Y117.681 E0.09246
G1 X178.241 Y120.106 E0.09051
G1 X178.089 Y120.369 E0.01051
G1 X176.531 Y122.387 E0.08816
G1 X119.887 Y179.031 E2.77055
G1 X117.821 Y180.623 E0.0902
M73 P6 R58
G1 X115.36 Y181.671 E0.09253
G1 X115.065 Y181.75 E0.01056
G1 X112.469 Y182.074 E0.09046
G1 X109.819 Y181.725 E0.09246
G1 X107.394 Y180.741 E0.09051
G1 X107.131 Y180.589 E0.01051
G1 X105.113 Y179.031 E0.08816
G1 X48.469 Y122.387 E2.77055
G1 X46.877 Y120.321 E0.0902
G1 X45.829 Y117.86 E0.09253
G1 X45.75 Y117.565 E0.01056
G1 X45.426 Y114.969 E0.09046
G1 X45.775 Y112.319 E0.09246
G1 X46.759 Y109.894 E0.09051
G1 X46.911 Y109.631 E0.01051
G1 X48.469 Y107.613 E0.08816
G1 X78.041 Y78.041 E1.44641
G1 X78.364 Y78.364 F15000
G1 F1800
G1 X105.426 Y51.303 E1.32363
G1 X107.434 Y49.757 E0.08765
G1 X109.804 Y48.756 E0.08895
G1 X110.007 Y48.702 E0.00728
G1 X112.395 Y48.387 E0.08331
G1 X112.605 Y48.387 E0.00725
G1 X115.094 Y48.725 E0.08687
G1 X117.419 Y49.677 E0.08692
G1 X117.602 Y49.783 E0.0073
G1 X119.574 Y51.303 E0.08611
G1 X176.197 Y107.926 E2.76953
G1 X177.743 Y109.934 E0.08765
G1 X178.744 Y112.304 E0.08895
G1 X178.799 Y112.508 E0.00733
G1 X179.117 Y115.001 E0.08692
G1 X178.791 Y117.537 E0.08841
G1 X177.823 Y119.919 E0.08894
G1 X177.717 Y120.102 E0.0073
G1 X176.197 Y122.074 E0.08611
G1 X119.574 Y178.697 E2.76953
G1 X117.566 Y180.243 E0.08765
G1 X115.196 Y181.244 E0.08895
G1 X114.992 Y181.299 E0.00733
G1 X112.499 Y181.617 E0.08692
G1 X109.963 Y181.291 E0.08841
G1 X107.581 Y180.323 E0.08895
G1 X107.398 Y180.217 E0.0073
G1 X105.426 Y178.697 E0.08611
G1 X48.803 Y122.074 E2.76953
G1 X47.257 Y120.066 E0.08765
G1 X46.256 Y117.696 E0.08895
G1 X46.201 Y117.492 E0.00733
G1 X45.883 Y114.999 E0.08692
G1 X46.209 Y112.463 E0.08841
G1 X47.177 Y110.081 E0.08894
G1 X47.283 Y109.898 E0.0073
G1 X48.803 Y107.926 E0.08611
G1 X78.364 Y78.364 E1.4459
G1 X78.688 Y78.688 F15000
G1 F1800
G1 X105.739 Y51.637 E1.32311
G1 X107.689 Y50.137 E0.08509
G1 X109.966 Y49.184 E0.08537
G1 X110.082 Y49.153 E0.00414
G1 X112.44 Y48.842 E0.08228
G1 X112.56 Y48.842 E0.00414
G1 X114.948 Y49.159 E0.08331
G1 X117.232 Y50.094 E0.08537
G1 X117.336 Y50.154 E0.00414
G1 X119.261 Y51.637 E0.08405
G1 X175.863 Y108.239 E2.76851
G1 X177.363 Y110.189 E0.08509
G1 X178.316 Y112.466 E0.08537
G1 X178.347 Y112.582 E0.00414
G1 X178.66 Y115.03 E0.08537
G1 X178.341 Y117.448 E0.08435
G1 X177.406 Y119.732 E0.08537
G1 X177.346 Y119.836 E0.00414
G1 X175.863 Y121.761 E0.08405
G1 X119.261 Y178.363 E2.76851
M73 P6 R57
G1 X117.311 Y179.863 E0.08509
G1 X115.034 Y180.816 E0.08537
G1 X114.918 Y180.847 E0.00414
G1 X112.47 Y181.16 E0.08537
G1 X110.052 Y180.841 E0.08435
G1 X107.768 Y179.906 E0.08537
G1 X107.664 Y179.846 E0.00414
G1 X105.739 Y178.363 E0.08405
G1 X49.137 Y121.761 E2.76851
G1 X47.637 Y119.811 E0.08509
G1 X46.684 Y117.534 E0.08537
G1 X46.653 Y117.418 E0.00414
G1 X46.34 Y114.97 E0.08537
G1 X46.659 Y112.552 E0.08434
G1 X47.594 Y110.268 E0.08537
G1 X47.654 Y110.165 E0.00414
G1 X49.137 Y108.239 E0.08406
G1 X78.688 Y78.688 E1.44539
G1 X79.011 Y79.011 F15000
G1 F1800
G1 X106.057 Y51.965 E1.32286
G1 X106.068 Y51.955 E0.00052
G1 X107.931 Y50.526 E0.08121
G1 X107.957 Y50.511 E0.00104
G1 X110.127 Y49.612 E0.08124
G1 X110.156 Y49.604 E0.00104
G1 X112.485 Y49.297 E0.08124
G1 X112.515 Y49.297 E0.00104
G1 X112.982 Y49.359 E0.01629
G1 X114.844 Y49.604 E0.06496
G1 X114.873 Y49.612 E0.00104
G1 X117.043 Y50.511 E0.08125
G1 X117.069 Y50.526 E0.00104
G1 X118.932 Y51.955 E0.08121
G1 X118.943 Y51.965 E0.00052
G1 X175.535 Y108.557 E2.76799
G1 X175.545 Y108.568 E0.00052
G1 X176.974 Y110.431 E0.08121
G1 X176.989 Y110.457 E0.00104
G1 X177.888 Y112.627 E0.08125
G1 X177.896 Y112.656 E0.00104
G1 X178.203 Y114.985 E0.08124
G1 X178.203 Y115.015 E0.00104
G1 X177.896 Y117.344 E0.08125
G1 X177.888 Y117.373 E0.00104
G1 X176.989 Y119.543 E0.08124
G1 X176.974 Y119.569 E0.00104
G1 X175.545 Y121.432 E0.08121
G1 X175.535 Y121.443 E0.00052
G1 X118.943 Y178.035 E2.76799
M73 P7 R57
G1 X118.932 Y178.045 E0.00052
G1 X117.069 Y179.474 E0.08121
G1 X117.043 Y179.489 E0.00104
G1 X114.873 Y180.388 E0.08124
G1 X114.844 Y180.396 E0.00104
