; generated by SuperSlicer 2.4 on 2023-07-15 at 21:09:21 UTC


;
;

;
;
; 

; external perimeters extrusion width = 0.46mm
; perimeters extrusion width = 0.46mm
; infill extrusion width = 0.46mm
; solid infill extrusion width = 0.56mm
; top infill extrusion width = 0.40mm
; support material extrusion width = 0.46mm
; first layer extrusion width = 0.50mm

; object:{"name":"Cover_ring","id":"Cover_ring.STL id:0 copy 0","object_center":[112.500000,115.000090,0.000000],"boundingbox_center":[112.500000,115.000090,2.322764],"boundingbox_size":[83.788605,83.930077,4.645527]}
; plater:{"center":[112.500000,115.000090,0.000000],"boundingbox_center":[112.500000,115.000090,2.322764],"boundingbox_size":[83.788605,83.930077,4.645527]}

M73 P0 R12


; Pre-Processed for Cancel-Object support by preprocess_cancellation v0.2.0
; 1 known objects
EXCLUDE_OBJECT_DEFINE NAME=Cover_ring_STL_id_0_copy_0 CENTER=112.398,114.949 POLYGON=[[70.861,73.29],[70.861,156.729],[154.139,156.729],[154.139,73.29]]
;TYPE:Custom
; custom gcode: start_gcode
;M190 S50
;M109 S35 ; uncomment to remove set&wait temp gcode added automatically after this start gcode
;print_start EXTRUDER_TEMP=190 BED_TEMP=63 CHAMBER=35

SET_PRINT_STATS_INFO TOTAL_LAYER=38
print_start EXTRUDER_TEMP=190 BED_TEMP=63 CHAMBER=35 AREA_START=64.4632,66.9237 AREA_END=160.481,162.942
; custom gcode end: start_gcode
M107
G21 ; set units to millimeters
G90 ; use absolute coordinates
M83 ; use relative distances for extrusion
; custom gcode: start_filament_gcode
; Filament gcode
; Macro syntax: https://help.prusa3d.com/article/macros_1775

; Set pressure advance per-filament
;SET_PRESSURE_ADVANCE ADVANCE=0.0x

; Set pressure advance per-filament for different nozzle sizes
;SET_PRESSURE_ADVANCE ADVANCE=0.0x
;

; custom gcode end: start_filament_gcode
;_TOOLCHANGE 0
M104 S190 ; set temperature
M109 S190 ; set temperature and wait for it to be reached
M190 S63 ; set bed temperature and wait for it to be reached
;LAYER_CHANGE
;Z:0.2
;HEIGHT:0.2
; custom gcode: before_layer_gcode
TIMELAPSE_TAKE_FRAME
; custom gcode end: before_layer_gcode

G1 Z0.2 F15000
; custom gcode: layer_gcode
;

SET_PRINT_STATS_INFO CURRENT_LAYER=1
; custom gcode end: layer_gcode

G92 E0
M73 P15 R10
G1 E-0.9 F1800
M204 S1500
G1 X79.183 Y80.919 F15000
G1 E0.9 F1800
;TYPE:Skirt
;WIDTH:0.46
G1 X77.02 Y83.19 E0.09897
G1 X75.935 Y84.448 E0.05242
G1 X74.91 Y85.706 E0.05122
G1 X73.177 Y88.092 E0.09306
G1 X71.51 Y90.701 E0.09773
G1 X70.715 Y92.116 E0.05122
G1 X69.942 Y93.587 E0.05244
G1 X68.695 Y96.26 E0.09307
G1 X67.566 Y99.187 E0.09899
G1 X67.046 Y100.765 E0.05244
G1 X66.581 Y102.32 E0.05122
G1 X65.894 Y105.188 E0.09308
G1 X65.353 Y108.238 E0.09775
G1 X65.16 Y109.849 E0.05122
G1 X65.009 Y111.504 E0.05244
G1 X64.882 Y114.451 E0.09309
G1 X64.96 Y117.587 E0.099
G1 X65.084 Y119.244 E0.05244
G1 X65.25 Y120.859 E0.05123
G1 X65.714 Y123.772 E0.09309
G1 X66.382 Y126.796 E0.09775
G1 X66.821 Y128.359 E0.05123
G1 X67.316 Y129.945 E0.05245
G1 X68.327 Y132.716 E0.09308
G1 X69.6 Y135.583 E0.099
G1 X70.349 Y137.066 E0.05244
G1 X71.121 Y138.494 E0.05122
G1 X72.665 Y141.007 E0.09309
G1 X74.44 Y143.545 E0.09774
G1 X75.445 Y144.819 E0.05122
G1 X76.509 Y146.096 E0.05244
G1 X78.503 Y148.268 E0.09307
M73 P16 R10
G1 X80.777 Y150.428 E0.09898
G1 X82.037 Y151.511 E0.05243
G1 X83.296 Y152.534 E0.05121
G1 X85.685 Y154.264 E0.09306
G1 X88.296 Y155.928 E0.09772
G1 X89.712 Y156.721 E0.05121
G1 X91.183 Y157.492 E0.05242
G1 X93.857 Y158.734 E0.09305
G1 X96.784 Y159.859 E0.09895
G1 X98.362 Y160.377 E0.05242
G1 X99.917 Y160.84 E0.0512
G1 X102.784 Y161.523 E0.09303
G1 X105.832 Y162.061 E0.09769
G1 X107.443 Y162.251 E0.05119
G1 X109.097 Y162.4 E0.0524
G1 X112.042 Y162.524 E0.09301
G1 X115.175 Y162.443 E0.09892
G1 X116.831 Y162.317 E0.05239
G1 X118.444 Y162.15 E0.05118
G1 X121.353 Y161.684 E0.093
G1 X124.374 Y161.014 E0.09764
G1 X125.935 Y160.573 E0.05118
G1 X127.519 Y160.078 E0.05239
G1 X130.286 Y159.066 E0.09297
G1 X133.149 Y157.793 E0.09888
G1 X134.63 Y157.043 E0.05238
G1 X136.055 Y156.272 E0.05116
G1 X138.564 Y154.728 E0.09296
G1 X141.098 Y152.954 E0.09761
G1 X142.371 Y151.951 E0.05115
G1 X143.645 Y150.888 E0.05237
G1 X145.813 Y148.895 E0.09295
G1 X147.971 Y146.624 E0.09885
G1 X149.052 Y145.366 E0.05236
G1 X150.074 Y144.108 E0.05114
G1 X151.801 Y141.723 E0.09294
G1 X153.463 Y139.116 E0.09758
G1 X154.255 Y137.702 E0.05114
G1 X155.025 Y136.233 E0.05235
G1 X156.267 Y133.563 E0.09292
G1 X157.391 Y130.64 E0.09882
G1 X157.909 Y129.065 E0.05235
G1 X158.372 Y127.512 E0.05113
G1 X159.056 Y124.649 E0.09291
G1 X159.595 Y121.604 E0.09757
G1 X159.786 Y119.996 E0.05113
G1 X159.936 Y118.344 E0.05234
G1 X160.062 Y115.403 E0.09291
G1 X159.984 Y112.272 E0.09881
G1 X159.86 Y110.619 E0.05234
G1 X159.694 Y109.007 E0.05113
G1 X159.231 Y106.1 E0.09291
G1 X158.565 Y103.081 E0.09755
G1 X158.127 Y101.521 E0.05113
G1 X157.634 Y99.938 E0.05235
G1 X156.626 Y97.172 E0.0929
G1 X155.357 Y94.309 E0.09881
G1 X154.61 Y92.828 E0.05235
G1 X153.841 Y91.402 E0.05113
G1 X152.301 Y88.893 E0.09292
G1 X150.531 Y86.358 E0.09757
G1 X149.53 Y85.084 E0.05113
G1 X148.469 Y83.809 E0.05235
G1 X146.48 Y81.638 E0.09293
G1 X144.212 Y79.478 E0.09883
G1 X142.955 Y78.395 E0.05235
G1 X141.699 Y77.371 E0.05115
G1 X139.316 Y75.641 E0.09294
G1 X136.711 Y73.975 E0.09759
G1 X135.298 Y73.181 E0.05115
G1 X133.83 Y72.408 E0.05237
G1 X131.161 Y71.163 E0.09295
G1 X128.238 Y70.034 E0.09886
G1 X126.663 Y69.514 E0.05237
G1 X125.11 Y69.048 E0.05117
G1 X122.246 Y68.361 E0.09296
G1 X119.2 Y67.818 E0.09763
G1 X117.59 Y67.624 E0.05117
G1 X115.937 Y67.472 E0.05239
G1 X112.994 Y67.342 E0.09299
G1 X109.861 Y67.418 E0.0989
G1 X108.205 Y67.54 E0.05239
G1 X106.592 Y67.704 E0.05118
G1 X103.681 Y68.165 E0.09301
G1 X100.659 Y68.829 E0.09766
G1 X99.097 Y69.267 E0.05119
G1 X97.511 Y69.759 E0.0524
G1 X94.741 Y70.766 E0.09302
G1 X91.874 Y72.035 E0.09894
G1 X90.391 Y72.782 E0.05241
G1 X88.963 Y73.551 E0.0512
G1 X86.449 Y75.092 E0.09304
G1 X83.91 Y76.863 E0.0977
G1 X82.634 Y77.866 E0.0512
G1 X81.357 Y78.928 E0.05243
G1 X79.183 Y80.919 E0.09305
G1 X79.468 Y81.223 F15000
G1 F1800
G1 X77.326 Y83.473 E0.09804
M73 P17 R10
G1 X76.258 Y84.712 E0.05163
G1 X75.245 Y85.955 E0.0506
G1 X73.518 Y88.333 E0.09275
G1 X71.864 Y90.921 E0.09693
G1 X71.079 Y92.32 E0.05061
G1 X70.317 Y93.768 E0.05164
G1 X69.075 Y96.432 E0.09276
G1 X67.958 Y99.331 E0.09807
G1 X67.446 Y100.885 E0.05164
G1 X66.985 Y102.422 E0.05061
G1 X66.301 Y105.28 E0.09277
G1 X65.764 Y108.305 E0.09695
G1 X65.575 Y109.897 E0.05061
G1 X65.426 Y111.527 E0.05165
G1 X65.299 Y114.464 E0.09277
G1 X65.377 Y117.571 E0.09807
G1 X65.499 Y119.203 E0.05165
G1 X65.662 Y120.798 E0.05062
G1 X66.125 Y123.701 E0.09277
G1 X66.788 Y126.701 E0.09695
G1 X67.223 Y128.244 E0.05062
G1 X67.709 Y129.807 E0.05165
G1 X68.717 Y132.569 E0.09277
G1 X69.979 Y135.408 E0.09807
G1 X70.717 Y136.869 E0.05164
G1 X71.479 Y138.28 E0.05061
G1 X73.018 Y140.784 E0.09277
G1 X74.779 Y143.301 E0.09694
G1 X75.771 Y144.56 E0.05061
G1 X76.819 Y145.817 E0.05164
G1 X78.807 Y147.982 E0.09276
G1 X81.06 Y150.122 E0.09805
G1 X82.301 Y151.188 E0.05163
G1 X83.545 Y152.2 E0.0506
G1 X85.925 Y153.923 E0.09274
G1 X88.515 Y155.573 E0.09692
G1 X89.914 Y156.356 E0.0506
G1 X91.363 Y157.116 E0.05163
G1 X94.028 Y158.354 E0.09273
G1 X96.928 Y159.468 E0.09803
G1 X98.482 Y159.978 E0.05162
G1 X100.018 Y160.435 E0.05059
G1 X102.876 Y161.116 E0.09271
G1 X105.899 Y161.649 E0.09689
G1 X107.491 Y161.836 E0.05058
G1 X109.12 Y161.983 E0.05161
G1 X112.054 Y162.107 E0.0927
G1 X115.158 Y162.026 E0.098
G1 X116.789 Y161.902 E0.0516
G1 X118.383 Y161.737 E0.05057
G1 X121.282 Y161.273 E0.09268
G1 X124.278 Y160.608 E0.09685
G1 X125.82 Y160.172 E0.05057
G1 X127.381 Y159.685 E0.05159
G1 X130.138 Y158.676 E0.09266
G1 X132.974 Y157.414 E0.09796
G1 X134.432 Y156.676 E0.05158
G1 X135.841 Y155.914 E0.05055
G1 X138.341 Y154.376 E0.09264
G1 X140.854 Y152.616 E0.09682
G1 X142.112 Y151.624 E0.05054
G1 X143.366 Y150.577 E0.05157
G1 X145.528 Y148.591 E0.09263
G1 X147.664 Y146.341 E0.09792
G1 X148.729 Y145.102 E0.05156
G1 X149.739 Y143.859 E0.05053
G1 X151.46 Y141.482 E0.09262
G1 X153.108 Y138.896 E0.09678
G1 X153.89 Y137.499 E0.05053
G1 X154.649 Y136.052 E0.05156
G1 X155.886 Y133.392 E0.09261
G1 X157 Y130.496 E0.0979
G1 X157.51 Y128.944 E0.05155
G1 X157.968 Y127.41 E0.05052
G1 X158.649 Y124.557 E0.09259
G1 X159.183 Y121.537 E0.09677
G1 X159.371 Y119.947 E0.05052
G1 X159.519 Y118.321 E0.05155
G1 X159.645 Y115.39 E0.09259
G1 X159.567 Y112.289 E0.09789
G1 X159.445 Y110.66 E0.05154
G1 X159.281 Y109.068 E0.05052
G1 X158.82 Y106.17 E0.09259
G1 X158.159 Y103.176 E0.09676
G1 X157.725 Y101.635 E0.05052
G1 X157.24 Y100.076 E0.05155
G1 X156.236 Y97.319 E0.09259
G1 X154.978 Y94.484 E0.09789
G1 X154.242 Y93.025 E0.05155
G1 X153.483 Y91.616 E0.05052
G1 X151.948 Y89.115 E0.0926
G1 X150.193 Y86.601 E0.09677
G1 X149.203 Y85.343 E0.05052
G1 X148.158 Y84.087 E0.05155
G1 X146.176 Y81.923 E0.09261
G1 X143.929 Y79.784 E0.09791
G1 X142.691 Y78.718 E0.05155
G1 X141.45 Y77.706 E0.05054
G1 X139.075 Y75.981 E0.09263
G1 X136.491 Y74.329 E0.0968
M73 P18 R10
G1 X135.095 Y73.545 E0.05054
G1 X133.649 Y72.784 E0.05157
G1 X130.989 Y71.543 E0.09263
G1 X128.094 Y70.425 E0.09794
G1 X126.542 Y69.913 E0.05157
G1 X125.007 Y69.453 E0.05056
G1 X122.153 Y68.767 E0.09264
G1 X119.132 Y68.229 E0.09684
G1 X117.542 Y68.039 E0.05056
G1 X115.914 Y67.889 E0.05159
G1 X112.98 Y67.759 E0.09267
G1 X109.877 Y67.834 E0.09798
G1 X108.246 Y67.955 E0.05159
G1 X106.652 Y68.117 E0.05057
G1 X103.751 Y68.576 E0.09269
G1 X100.754 Y69.235 E0.09686
G1 X99.21 Y69.668 E0.05058
G1 X97.649 Y70.153 E0.0516
G1 X94.888 Y71.156 E0.0927
G1 X92.048 Y72.414 E0.09801
G1 X90.588 Y73.15 E0.05161
G1 X89.176 Y73.91 E0.05059
G1 X86.671 Y75.445 E0.09272
G1 X84.153 Y77.202 E0.0969
G1 X82.893 Y78.193 E0.05059
G1 X81.635 Y79.239 E0.05163
G1 X79.468 Y81.223 E0.09274
G1 X79.753 Y81.528 F15000
G1 F1800
G1 X77.632 Y83.757 E0.09712
G1 X76.581 Y84.977 E0.05083
G1 X75.579 Y86.204 E0.04999
G1 X73.858 Y88.574 E0.09243
G1 X72.218 Y91.141 E0.09614
G1 X71.443 Y92.523 E0.05
G1 X70.693 Y93.949 E0.05084
G1 X69.455 Y96.603 E0.09244
G1 X68.349 Y99.476 E0.09714
G1 X67.845 Y101.006 E0.05084
G1 X67.39 Y102.524 E0.05
G1 X66.708 Y105.372 E0.09245
G1 X66.176 Y108.372 E0.09616
G1 X65.989 Y109.946 E0.05
G1 X65.842 Y111.55 E0.05085
G1 X65.715 Y114.477 E0.09246
G1 X65.793 Y117.554 E0.09715
G1 X65.914 Y119.161 E0.05085
G1 X66.075 Y120.737 E0.05001
G1 X66.536 Y123.63 E0.09245
G1 X67.194 Y126.605 E0.09615
G1 X67.624 Y128.13 E0.05001
G1 X68.103 Y129.669 E0.05085
G1 X69.107 Y132.421 E0.09245
G1 X70.357 Y135.234 E0.09715
G1 X71.084 Y136.672 E0.05085
G1 X71.836 Y138.066 E0.05
G1 X73.37 Y140.562 E0.09245
G1 X75.117 Y143.058 E0.09614
G1 X76.098 Y144.301 E0.05
G1 X77.13 Y145.539 E0.05084
G1 X79.111 Y147.696 E0.09244
G1 X81.343 Y149.815 E0.09713
G1 X82.565 Y150.865 E0.05084
G1 X83.794 Y151.865 E0.04999
G1 X86.166 Y153.582 E0.09243
G1 X88.735 Y155.219 E0.09612
G1 X90.117 Y155.992 E0.04999
G1 X91.544 Y156.74 E0.05083
G1 X94.199 Y157.974 E0.09241
G1 X97.072 Y159.076 E0.0971
G1 X98.602 Y159.578 E0.05082
G1 X100.119 Y160.031 E0.04998
G1 X102.968 Y160.709 E0.0924
G1 X105.966 Y161.237 E0.09609
G1 X107.539 Y161.422 E0.04997
G1 X109.142 Y161.567 E0.05081
G1 X112.067 Y161.69 E0.09238
G1 X115.142 Y161.609 E0.09707
G1 X116.747 Y161.487 E0.0508
G1 X118.322 Y161.325 E0.04996
G1 X121.211 Y160.862 E0.09237
G1 X124.183 Y160.202 E0.09605
G1 X125.706 Y159.771 E0.04996
G1 X127.242 Y159.291 E0.05079
G1 X129.99 Y158.286 E0.09234
G1 X132.799 Y157.035 E0.09703
G1 X134.235 Y156.309 E0.05078
G1 X135.627 Y155.556 E0.04994
G1 X138.118 Y154.023 E0.09233
G1 X140.61 Y152.278 E0.09602
G1 X141.852 Y151.297 E0.04993
G1 X143.088 Y150.267 E0.05077
G1 X145.242 Y148.288 E0.09231
G1 X147.358 Y146.058 E0.097
G1 X148.406 Y144.838 E0.05076
G1 X149.404 Y143.611 E0.04993
G1 X151.119 Y141.242 E0.0923
G1 X152.754 Y138.677 E0.09599
G1 X153.526 Y137.296 E0.04992
G1 X154.273 Y135.872 E0.05076
G1 X155.506 Y133.22 E0.09229
G1 X156.608 Y130.352 E0.09697
M73 P19 R10
G1 X157.11 Y128.824 E0.05076
G1 X157.563 Y127.309 E0.04991
G1 X158.242 Y124.465 E0.09228
G1 X158.771 Y121.47 E0.09597
G1 X158.957 Y119.899 E0.04991
G1 X159.103 Y118.298 E0.05075
G1 X159.228 Y115.377 E0.09228
G1 X159.15 Y112.305 E0.09696
G1 X159.03 Y110.702 E0.05075
G1 X158.869 Y109.128 E0.04991
G1 X158.409 Y106.241 E0.09228
G1 X157.753 Y103.272 E0.09596
G1 X157.324 Y101.749 E0.04991
G1 X156.847 Y100.214 E0.05075
G1 X155.846 Y97.466 E0.09227
G1 X154.599 Y94.658 E0.09696
G1 X153.875 Y93.222 E0.05076
G1 X153.125 Y91.83 E0.04991
G1 X151.595 Y89.338 E0.09229
G1 X149.854 Y86.844 E0.09598
G1 X148.876 Y85.602 E0.04991
G1 X147.847 Y84.365 E0.05076
G1 X145.871 Y82.209 E0.0923
G1 X143.645 Y80.09 E0.09698
G1 X142.427 Y79.04 E0.05076
G1 X141.201 Y78.041 E0.04993
G1 X138.834 Y76.322 E0.09231
G1 X136.271 Y74.684 E0.096
G1 X134.891 Y73.909 E0.04993
G1 X133.468 Y73.16 E0.05077
G1 X130.817 Y71.923 E0.09232
G1 X127.949 Y70.816 E0.09701
G1 X126.421 Y70.312 E0.05078
G1 X124.905 Y69.857 E0.04995
G1 X122.061 Y69.174 E0.09233
G1 X119.064 Y68.641 E0.09604
G1 X117.493 Y68.453 E0.04995
G1 X115.89 Y68.305 E0.05079
G1 X112.967 Y68.176 E0.09235
G1 X109.893 Y68.251 E0.09705
G1 X108.287 Y68.37 E0.0508
G1 X106.712 Y68.53 E0.04996
G1 X103.821 Y68.987 E0.09237
G1 X100.848 Y69.641 E0.09607
G1 X99.324 Y70.069 E0.04997
G1 X97.786 Y70.546 E0.05081
G1 X95.035 Y71.546 E0.09239
G1 X92.222 Y72.793 E0.09709
G1 X90.785 Y73.517 E0.05082
G1 X89.39 Y74.268 E0.04998
G1 X86.893 Y75.798 E0.09241
G1 X84.396 Y77.541 E0.09611
G1 X83.152 Y78.52 E0.04998
G1 X81.913 Y79.55 E0.05083
G1 X79.753 Y81.528 E0.09242
G1 E-0.9
; acceleration to travel
M204 S3500
G1 X81.584 Y83.439 F15000
; decel to extrusion
M204 S1500
G1 X82.369 Y84.258
; end travel
G1 E0.9 F1800
;WIDTH:0.5
G1 X83.371 Y83.317 E0.04754
G1 X84.399 Y82.398 E0.0477
G1 X85.517 Y81.469 E0.05027
G1 X86.646 Y80.579 E0.04972
G1 X87.768 Y79.774 E0.04775
G1 X88.934 Y78.98 E0.04879
G1 X90.093 Y78.251 E0.04736
G1 X91.278 Y77.543 E0.04773
G1 X92.544 Y76.863 E0.04971
G1 X93.842 Y76.209 E0.05026
G1 X95.101 Y75.631 E0.0479
G1 X96.406 Y75.07 E0.04914
G1 X97.702 Y74.581 E0.0479
G1 X98.993 Y74.129 E0.0473
G1 X100.381 Y73.699 E0.05025
G1 X101.764 Y73.31 E0.0497
G1 X103.119 Y72.993 E0.04812
G1 X104.497 Y72.707 E0.04868
G1 X105.838 Y72.478 E0.04705
G1 X107.203 Y72.278 E0.04771
G1 X108.633 Y72.135 E0.04969
G1 X110.081 Y72.027 E0.05024
G1 X111.465 Y71.975 E0.04789
G1 X112.896 Y71.956 E0.0495
G1 X113.844 Y71.987 E0.0328
G1 X115.618 Y72.076 E0.06144
G1 X117.08 Y72.211 E0.05077
G1 X118.507 Y72.38 E0.04968
G1 X119.873 Y72.605 E0.04791
G1 X121.261 Y72.869 E0.04886
G1 X122.593 Y73.172 E0.04722
G1 X123.924 Y73.508 E0.0475
G1 X125.3 Y73.923 E0.04968
G1 X126.679 Y74.377 E0.05022
G1 X127.977 Y74.858 E0.04788
G1 X129.305 Y75.388 E0.04947
G1 X130.556 Y75.954 E0.04749
G1 X131.788 Y76.547 E0.04726
G1 X133.072 Y77.223 E0.05022
G1 X134.325 Y77.925 E0.04966
G1 X135.501 Y78.656 E0.04789
G1 X136.676 Y79.426 E0.04855
G1 X137.801 Y80.222 E0.04769
G1 X138.898 Y81.039 E0.0473
G1 X140.01 Y81.947 E0.04966
G1 X141.11 Y82.894 E0.0502
G1 X142.12 Y83.831 E0.04766
G1 X143.142 Y84.825 E0.04929
G1 X144.085 Y85.83 E0.04767
G1 X144.999 Y86.852 E0.04744
G1 X145.927 Y87.968 E0.0502
G1 X146.816 Y89.095 E0.04965
G1 X147.627 Y90.225 E0.04807
G1 X148.418 Y91.387 E0.04864
G1 X149.146 Y92.542 E0.0472
G1 X149.85 Y93.72 E0.04748
G1 X150.53 Y94.984 E0.04964
G1 X151.184 Y96.28 E0.0502
G1 X151.762 Y97.537 E0.04785
G1 X152.327 Y98.85 E0.04945
G1 X152.812 Y100.134 E0.04747
G1 X153.264 Y101.423 E0.04724
G1 X153.695 Y102.809 E0.05019
G1 X154.086 Y104.19 E0.04965
G1 X154.402 Y105.543 E0.04807
G1 X154.69 Y106.92 E0.04864
G1 X154.921 Y108.27 E0.04737
G1 X155.12 Y109.623 E0.04729
G1 X155.265 Y111.051 E0.04964
G1 X155.374 Y112.498 E0.05019
G1 X155.428 Y113.88 E0.04785
M73 P20 R10
G1 X155.448 Y115.31 E0.04945
G1 X155.406 Y116.676 E0.04728
G1 X155.331 Y118.046 E0.04743
G1 X155.199 Y119.491 E0.05019
G1 X155.031 Y120.917 E0.04965
G1 X154.807 Y122.288 E0.04807
G1 X154.546 Y123.67 E0.04864
G1 X154.246 Y124.996 E0.047
G1 X153.91 Y126.332 E0.04767
