; generated by SuperSlicer 2.4 on 2023-07-11 at 19:34:47 UTC


;
;

;
;
; 

; external perimeters extrusion width = 0.46mm
; perimeters extrusion width = 0.46mm
; infill extrusion width = 0.46mm
; solid infill extrusion width = 0.56mm
; top infill extrusion width = 0.40mm
; support material extrusion width = 0.46mm
; first layer extrusion width = 0.50mm

; external perimeters extrusion width = 0.46mm
; perimeters extrusion width = 0.46mm
; infill extrusion width = 0.46mm
; solid infill extrusion width = 0.56mm
; top infill extrusion width = 0.40mm
; support material extrusion width = 0.46mm
; first layer extrusion width = 0.50mm

; external perimeters extrusion width = 0.46mm
; perimeters extrusion width = 0.46mm
; infill extrusion width = 0.46mm
; solid infill extrusion width = 0.56mm
; top infill extrusion width = 0.40mm
; support material extrusion width = 0.46mm
; first layer extrusion width = 0.50mm

; external perimeters extrusion width = 0.46mm
; perimeters extrusion width = 0.46mm
; infill extrusion width = 0.46mm
; solid infill extrusion width = 0.56mm
; top infill extrusion width = 0.40mm
; support material extrusion width = 0.46mm
; first layer extrusion width = 0.50mm

; external perimeters extrusion width = 0.46mm
; perimeters extrusion width = 0.46mm
; infill extrusion width = 0.46mm
; solid infill extrusion width = 0.56mm
; top infill extrusion width = 0.40mm
; support material extrusion width = 0.46mm
; first layer extrusion width = 0.50mm

; external perimeters extrusion width = 0.46mm
; perimeters extrusion width = 0.46mm
; infill extrusion width = 0.46mm
; solid infill extrusion width = 0.56mm
; top infill extrusion width = 0.40mm
; support material extrusion width = 0.46mm
; first layer extrusion width = 0.50mm

; object:{"name":"VORON  Cable Clip 2020 profile","id":"VORON  Cable Clip 2020 profile.STL id:0 copy 0","object_center":[101.000000,115.000000,0.000000],"boundingbox_center":[101.000000,115.000000,4.500000],"boundingbox_size":[17.000000,14.000000,9.000000]}
; object:{"name":"VORON  Cable Clip 2020 profile","id":"VORON  Cable Clip 2020 profile.STL id:1 copy 0","object_center":[101.000000,135.000000,0.000000],"boundingbox_center":[101.000000,135.000000,4.500000],"boundingbox_size":[17.000000,14.000000,9.000000]}
; object:{"name":"VORON  Cable Clip 2020 profile","id":"VORON  Cable Clip 2020 profile.STL id:2 copy 0","object_center":[124.000000,115.000000,0.000000],"boundingbox_center":[124.000000,115.000000,4.500000],"boundingbox_size":[17.000000,14.000000,9.000000]}
; object:{"name":"VORON  Cable Clip 2020 profile","id":"VORON  Cable Clip 2020 profile.STL id:3 copy 0","object_center":[124.000000,135.000000,0.000000],"boundingbox_center":[124.000000,135.000000,4.500000],"boundingbox_size":[17.000000,14.000000,9.000000]}
; object:{"name":"VORON  Cable Clip 2020 profile","id":"VORON  Cable Clip 2020 profile.STL id:4 copy 0","object_center":[101.000000,95.000000,0.000000],"boundingbox_center":[101.000000,95.000000,4.500000],"boundingbox_size":[17.000000,14.000000,9.000000]}
; object:{"name":"VORON  Cable Clip 2020 profile","id":"VORON  Cable Clip 2020 profile.STL id:5 copy 0","object_center":[124.000001,95.000000,0.000000],"boundingbox_center":[124.000001,95.000000,4.500000],"boundingbox_size":[17.000000,14.000000,9.000000]}
; plater:{"center":[112.500000,115.000000,0.000000],"boundingbox_center":[112.500000,115.000000,4.500000],"boundingbox_size":[40.000001,54.000000,9.000000]}

M73 P0 R31


; Pre-Processed for Cancel-Object support by preprocess_cancellation v0.2.0
; 6 known objects
EXCLUDE_OBJECT_DEFINE NAME=VORON_Cable_Clip_2020_profile_STL_id_0_copy_0 CENTER=101.083,115.881 POLYGON=[[92.73,108.23],[92.73,121.77],[109.27,121.77],[109.27,108.23]]
EXCLUDE_OBJECT_DEFINE NAME=VORON_Cable_Clip_2020_profile_STL_id_1_copy_0 CENTER=101.083,135.881 POLYGON=[[92.73,128.23],[92.73,141.77],[109.27,141.77],[109.27,128.23]]
EXCLUDE_OBJECT_DEFINE NAME=VORON_Cable_Clip_2020_profile_STL_id_3_copy_0 CENTER=124.083,135.881 POLYGON=[[115.73,128.23],[115.73,141.77],[132.27,141.77],[132.27,128.23]]
EXCLUDE_OBJECT_DEFINE NAME=VORON_Cable_Clip_2020_profile_STL_id_2_copy_0 CENTER=124.083,115.881 POLYGON=[[115.73,108.23],[115.73,121.77],[132.27,121.77],[132.27,108.23]]
EXCLUDE_OBJECT_DEFINE NAME=VORON_Cable_Clip_2020_profile_STL_id_5_copy_0 CENTER=124.083,95.881 POLYGON=[[115.73,88.23],[115.73,101.77],[132.27,101.77],[132.27,88.23]]
EXCLUDE_OBJECT_DEFINE NAME=VORON_Cable_Clip_2020_profile_STL_id_4_copy_0 CENTER=101.083,95.881 POLYGON=[[92.73,88.23],[92.73,101.77],[109.27,101.77],[109.27,88.23]]
;TYPE:Custom
; custom gcode: start_gcode
;M190 S50
;M109 S35 ; uncomment to remove set&wait temp gcode added automatically after this start gcode
;print_start EXTRUDER_TEMP=190 BED_TEMP=63 CHAMBER=35

SET_PRINT_STATS_INFO TOTAL_LAYER=32
print_start EXTRUDER_TEMP=190 BED_TEMP=63 CHAMBER=35 AREA_START=84.1402,79.6356 AREA_END=140.862,150.36
; custom gcode end: start_gcode
M107
G21 ; set units to millimeters
G90 ; use absolute coordinates
M83 ; use relative distances for extrusion
; custom gcode: start_filament_gcode
; Filament gcode
; Macro syntax: https://help.prusa3d.com/article/macros_1775

; Set pressure advance per-filament
;SET_PRESSURE_ADVANCE ADVANCE=0.0x

; Set pressure advance per-filament for different nozzle sizes
;SET_PRESSURE_ADVANCE ADVANCE=0.0x
;

; custom gcode end: start_filament_gcode
;_TOOLCHANGE 0
M104 S190 ; set temperature
M109 S190 ; set temperature and wait for it to be reached
M190 S63 ; set bed temperature and wait for it to be reached
;LAYER_CHANGE
;Z:0.2
;HEIGHT:0.2
; custom gcode: before_layer_gcode
TIMELAPSE_TAKE_FRAME
; custom gcode end: before_layer_gcode

G1 Z0.2 F15000
; custom gcode: layer_gcode
;

SET_PRINT_STATS_INFO CURRENT_LAYER=1
; custom gcode end: layer_gcode

G92 E0
M73 P6 R29
G1 E-0.9 F1800
M204 S1500
G1 X86.761 Y86.76 F15000
G1 E0.9 F1800
;TYPE:Skirt
;WIDTH:0.46
G1 X86.198 Y87.323 E0.02513
G1 X85.152 Y89.135 E0.06604
G1 X84.695 Y90.84 E0.05572
G1 X84.557 Y91.887 E0.03331
G1 X84.557 Y139.615 E1.50628
G1 X84.788 Y140.962 E0.04312
G1 X85.741 Y142.474 E0.0564
G1 X92.026 Y148.759 E0.28049
G1 X93.142 Y149.548 E0.04312
G1 X94.885 Y149.943 E0.0564
G1 X130.115 Y149.943 E1.11185
G1 X131.462 Y149.712 E0.04312
G1 X132.974 Y148.759 E0.0564
G1 X139.26 Y142.472 E0.28057
G1 X140.049 Y141.357 E0.04312
G1 X140.444 Y139.614 E0.0564
G1 X140.436 Y91.637 E1.51412
G1 X140.192 Y90.258 E0.04417
G1 X139.675 Y88.837 E0.04772
G1 X138.973 Y87.621 E0.04431
G1 X138 Y86.461 E0.04779
G1 X137.218 Y85.746 E0.03343
G1 X130.596 Y81.119 E0.25496
G1 X129.224 Y80.501 E0.04748
G1 X127.82 Y80.164 E0.04557
G1 X126.877 Y80.053 E0.02999
G1 X97.725 Y80.061 E0.91999
G1 X96.184 Y80.369 E0.04961
G1 X94.58 Y81.033 E0.05478
G1 X93.818 Y81.449 E0.02741
G1 X88.372 Y85.238 E0.20937
G1 X87.823 Y85.698 E0.02262
G1 X86.761 Y86.76 E0.04737
G1 X87.061 Y87.071 F15000
G1 F1800
G1 X86.493 Y87.618 E0.02487
G1 X85.555 Y89.243 E0.05923
G1 X85.098 Y90.948 E0.05572
G1 X84.974 Y91.887 E0.02987
G1 X84.974 Y139.615 E1.50628
G1 X85.152 Y140.737 E0.03585
G1 X86.036 Y142.179 E0.05338
G1 X92.321 Y148.464 E0.28049
G1 X93.24 Y149.131 E0.03585
G1 X94.885 Y149.526 E0.05338
G1 X130.115 Y149.526 E1.11185
G1 X131.237 Y149.348 E0.03585
G1 X132.679 Y148.464 E0.05338
G1 X138.965 Y142.177 E0.28057
M73 P7 R29
G1 X139.633 Y141.258 E0.03585
G1 X140.027 Y139.614 E0.05338
G1 X140.019 Y91.637 E1.5141
G1 X139.8 Y90.401 E0.03962
G1 X139.283 Y88.98 E0.04772
G1 X138.653 Y87.889 E0.03974
G1 X137.68 Y86.729 E0.04779
G1 X136.979 Y86.088 E0.02998
G1 X130.357 Y81.461 E0.25496
G1 X129.127 Y80.907 E0.04258
G1 X127.723 Y80.57 E0.04557
G1 X126.877 Y80.47 E0.0269
G1 X97.726 Y80.478 E0.91997
G1 X96.343 Y80.754 E0.04449
G1 X94.739 Y81.418 E0.05478
G1 X94.056 Y81.792 E0.02458
G1 X88.61 Y85.581 E0.20937
G1 X87.061 Y87.071 E0.06785
G1 X87.35 Y87.37 F15000
G1 F1800
G1 X86.788 Y87.912 E0.02464
G1 X85.958 Y89.351 E0.05241
G1 X85.501 Y91.056 E0.05572
G1 X85.391 Y91.887 E0.02643
G1 X85.391 Y139.615 E1.50628
G1 X85.521 Y140.517 E0.02874
G1 X86.331 Y141.884 E0.05017
G1 X92.616 Y148.169 E0.28049
G1 X93.345 Y148.715 E0.02874
G1 X94.885 Y149.109 E0.05017
G1 X130.115 Y149.109 E1.11185
G1 X131.017 Y148.979 E0.02874
G1 X132.384 Y148.169 E0.05017
G1 X138.671 Y141.882 E0.28057
G1 X139.217 Y141.154 E0.02874
G1 X139.61 Y139.614 E0.05017
G1 X139.602 Y91.637 E1.51409
G1 X139.408 Y90.543 E0.03506
G1 X138.891 Y89.123 E0.04772
G1 X138.334 Y88.158 E0.03517
G1 X137.361 Y86.998 E0.04779
G1 X136.741 Y86.43 E0.02653
G1 X130.119 Y81.802 E0.25496
G1 X129.03 Y81.313 E0.03768
G1 X127.626 Y80.975 E0.04557
G1 X126.877 Y80.887 E0.0238
G1 X97.726 Y80.895 E0.91995
G1 X96.503 Y81.139 E0.03937
G1 X94.899 Y81.804 E0.05478
G1 X94.294 Y82.134 E0.02175
G1 X88.849 Y85.923 E0.20937
G1 X87.35 Y87.37 E0.06575
G1 E-0.9
; acceleration to travel
M204 S3500
G1 X89.212 Y89.248 F15000
; decel to extrusion
M204 S1500
G1 X90.01 Y90.052
; end travel
G1 E0.9 F1800
;WIDTH:0.5
G1 X90.802 Y89.319 E0.03732
G1 X91.75 Y88.858 E0.03648
G1 X92.588 Y88.687 E0.02956
G1 X93.78 Y88.682 E0.04122
G1 X94.086 Y87.867 E0.0301
G1 X94.572 Y87.14 E0.03024
G1 X96.109 Y85.596 E0.07538
G1 X96.743 Y85.151 E0.02679
G1 X97.477 Y84.839 E0.02758
G1 X98.259 Y84.685 E0.02757
G1 X99.425 Y84.687 E0.0403
G1 X100.023 Y84.789 E0.02099
G1 X100.617 Y84.996 E0.02175
G1 X101.003 Y85.207 E0.01524
G1 X101.293 Y85.036 E0.01163
G1 X101.814 Y84.836 E0.01928
G1 X102.4 Y84.705 E0.02077
G1 X103.777 Y84.69 E0.04764
G1 X104.884 Y84.965 E0.03946
G1 X105.446 Y85.263 E0.022
G1 X105.946 Y85.645 E0.02175
G1 X107.448 Y87.163 E0.07385
G1 X107.909 Y87.849 E0.02862
G1 X108.182 Y88.537 E0.0256
G1 X108.211 Y88.677 E0.00491
G1 X109.385 Y88.684 E0.04062
G1 X110.01 Y88.786 E0.0219
G1 X110.635 Y89.004 E0.02289
G1 X111.229 Y89.342 E0.02364
G1 X111.73 Y89.76 E0.02255
G1 X112.211 Y90.346 E0.02623
G1 X112.501 Y90.881 E0.02105
G1 X113.01 Y90.052 E0.03364
G1 X113.802 Y89.319 E0.03732
G1 X114.75 Y88.858 E0.03648
G1 X115.588 Y88.687 E0.02956
G1 X116.78 Y88.682 E0.04122
G1 X117.086 Y87.867 E0.0301
G1 X117.572 Y87.14 E0.03024
G1 X119.109 Y85.596 E0.07538
G1 X119.743 Y85.151 E0.02679
G1 X120.477 Y84.839 E0.02758
G1 X121.259 Y84.685 E0.02757
G1 X122.425 Y84.687 E0.0403
G1 X123.023 Y84.789 E0.02099
G1 X123.617 Y84.996 E0.02175
G1 X124.003 Y85.207 E0.01524
G1 X124.293 Y85.036 E0.01163
G1 X124.814 Y84.836 E0.01928
G1 X125.4 Y84.705 E0.02077
G1 X126.777 Y84.69 E0.04764
G1 X127.884 Y84.965 E0.03946
G1 X128.446 Y85.263 E0.022
G1 X128.946 Y85.645 E0.02175
G1 X130.448 Y87.163 E0.07385
G1 X130.909 Y87.849 E0.02862
G1 X131.182 Y88.537 E0.0256
G1 X131.211 Y88.677 E0.00491
G1 X132.385 Y88.684 E0.04062
G1 X133.01 Y88.786 E0.0219
G1 X133.635 Y89.004 E0.02289
G1 X134.229 Y89.342 E0.02364
G1 X134.73 Y89.76 E0.02255
G1 X135.211 Y90.346 E0.02623
G1 X135.51 Y90.897 E0.02167
G1 X135.707 Y91.464 E0.02076
G1 X135.822 Y92.191 E0.02547
G1 X135.828 Y98.168 E0.20672
G1 X135.73 Y98.798 E0.02202
G1 X135.499 Y99.441 E0.02365
G1 X134.984 Y100.222 E0.03235
G1 X130.729 Y104.477 E0.20812
G1 X130.163 Y104.881 E0.02405
G1 X129.529 Y105.164 E0.02401
G1 X128.681 Y105.328 E0.02987
G1 X128.532 Y105.328 E0.00517
G1 X128.946 Y105.645 E0.01803
G1 X130.448 Y107.163 E0.07385
G1 X130.909 Y107.849 E0.02862
G1 X131.182 Y108.537 E0.0256
G1 X131.211 Y108.677 E0.00491
G1 X132.385 Y108.684 E0.04062
G1 X133.01 Y108.786 E0.0219
G1 X133.635 Y109.004 E0.02289
G1 X134.229 Y109.342 E0.02364
G1 X134.73 Y109.76 E0.02255
G1 X135.211 Y110.346 E0.02623
G1 X135.51 Y110.897 E0.02167
G1 X135.707 Y111.464 E0.02076
G1 X135.822 Y112.191 E0.02547
G1 X135.828 Y118.168 E0.20672
G1 X135.73 Y118.798 E0.02202
G1 X135.499 Y119.441 E0.02365
G1 X134.984 Y120.222 E0.03235
G1 X130.729 Y124.477 E0.20812
G1 X130.163 Y124.881 E0.02405
G1 X129.529 Y125.164 E0.02401
G1 X128.681 Y125.328 E0.02987
G1 X128.532 Y125.328 E0.00517
G1 X128.946 Y125.645 E0.01803
G1 X130.448 Y127.163 E0.07385
G1 X130.909 Y127.849 E0.02862
G1 X131.182 Y128.537 E0.0256
G1 X131.211 Y128.677 E0.00491
G1 X132.385 Y128.684 E0.04062
G1 X133.01 Y128.786 E0.0219
G1 X133.635 Y129.004 E0.02289
G1 X134.229 Y129.342 E0.02364
G1 X134.73 Y129.76 E0.02255
G1 X135.211 Y130.346 E0.02623
G1 X135.51 Y130.897 E0.02167
G1 X135.707 Y131.464 E0.02076
G1 X135.822 Y132.191 E0.02547
G1 X135.828 Y138.168 E0.20672
G1 X135.73 Y138.798 E0.02202
G1 X135.499 Y139.441 E0.02365
G1 X134.984 Y140.222 E0.03235
G1 X130.729 Y144.477 E0.20812
G1 X130.163 Y144.881 E0.02405
G1 X129.529 Y145.164 E0.02401
G1 X128.681 Y145.328 E0.02987
M73 P7 R28
G1 X119.319 Y145.328 E0.32379
G1 X118.471 Y145.164 E0.02987
G1 X117.837 Y144.881 E0.02401
G1 X117.271 Y144.477 E0.02405
G1 X113.025 Y140.232 E0.20766
G1 X112.651 Y139.718 E0.02199
G1 X112.508 Y139.415 E0.01158
G1 X112.499 Y139.441 E0.00096
G1 X111.984 Y140.222 E0.03235
G1 X107.729 Y144.477 E0.20812
G1 X107.163 Y144.881 E0.02405
G1 X106.529 Y145.164 E0.02401
G1 X105.681 Y145.328 E0.02987
G1 X96.319 Y145.328 E0.32379
G1 X95.471 Y145.164 E0.02987
G1 X94.837 Y144.881 E0.02401
G1 X94.271 Y144.477 E0.02405
G1 X90.025 Y140.232 E0.20766
G1 X89.651 Y139.718 E0.02199
G1 X89.36 Y139.1 E0.02362
G1 X89.172 Y138.185 E0.03231
G1 X89.172 Y132.289 E0.20392
G1 X89.27 Y131.591 E0.02437
G1 X89.483 Y130.911 E0.02463
G1 X90.01 Y130.052 E0.03485
G1 X90.802 Y129.319 E0.03732
G1 X91.75 Y128.858 E0.03648
G1 X92.588 Y128.687 E0.02956
G1 X93.78 Y128.682 E0.04122
G1 X94.086 Y127.867 E0.0301
G1 X94.572 Y127.14 E0.03024
G1 X96.109 Y125.596 E0.07538
G1 X96.491 Y125.328 E0.01611
G1 X96.319 Y125.328 E0.00594
G1 X95.471 Y125.164 E0.02987
G1 X94.837 Y124.881 E0.02401
G1 X94.271 Y124.477 E0.02405
G1 X90.025 Y120.232 E0.20766
G1 X89.651 Y119.718 E0.02199
G1 X89.36 Y119.1 E0.02362
G1 X89.172 Y118.185 E0.03231
G1 X89.172 Y112.289 E0.20392
G1 X89.27 Y111.591 E0.02437
M73 P8 R28
G1 X89.483 Y110.911 E0.02463
G1 X90.01 Y110.052 E0.03485
G1 X90.802 Y109.319 E0.03732
G1 X91.75 Y108.858 E0.03648
G1 X92.588 Y108.687 E0.02956
G1 X93.78 Y108.682 E0.04122
G1 X94.086 Y107.867 E0.0301
G1 X94.572 Y107.14 E0.03024
G1 X96.109 Y105.596 E0.07538
G1 X96.491 Y105.328 E0.01611
G1 X96.319 Y105.328 E0.00594
G1 X95.471 Y105.164 E0.02987
G1 X94.837 Y104.881 E0.02401
G1 X94.271 Y104.477 E0.02405
G1 X90.025 Y100.232 E0.20766
G1 X89.651 Y99.718 E0.02199
G1 X89.36 Y99.1 E0.02362
G1 X89.172 Y98.185 E0.03231
G1 X89.172 Y92.289 E0.20392
G1 X89.27 Y91.591 E0.02437
G1 X89.483 Y90.911 E0.02463
G1 X90.01 Y90.052 E0.03485
G1 E-0.9
; acceleration to travel
M204 S3500
G1 X97.228 Y94.304 F15000
; decel to extrusion
M204 S1500
G1 X100.322 Y96.126
; end travel
G1 E0.9 F1800
G1 X100.833 Y95.87 E0.01977
G1 X100.848 Y95.862 E0.00057
G1 X100.891 Y95.837 E0.00171
G1 X100.904 Y95.828 E0.00057
G1 X100.999 Y95.762 E0.004
G1 X101.013 Y95.752 E0.00058
G1 X101.361 Y95.98 E0.01438
G1 X101.372 Y95.987 E0.00046
G1 X101.406 Y96.006 E0.00137
G1 X101.418 Y96.013 E0.00046
G1 X101.5 Y96.054 E0.0032
G1 X101.512 Y96.06 E0.00046
G1 X101.549 Y96.075 E0.00137
G1 X101.561 Y96.08 E0.00046
G1 X101.689 Y96.127 E0.00471
G1 X100.322 Y96.126 E0.04727
G1 E-0.9
; acceleration to travel
M204 S3500
G1 X99.679 Y102.439 F15000
; decel to extrusion
M204 S1500
G1 X99.404 Y105.144
; end travel
G1 E0.9 F1800
G1 X99.925 Y105.236 E0.01829
G1 X100.447 Y105.42 E0.01914
G1 X100.92 Y105.683 E0.01872
G1 X100.999 Y105.743 E0.00343
G1 X101.476 Y105.456 E0.01927
G1 X101.962 Y105.269 E0.01799
G1 X102.475 Y105.157 E0.01817
G1 X103.698 Y105.141 E0.04229
G1 X104.697 Y105.383 E0.03556
G1 X105.185 Y105.638 E0.01905
G1 X105.633 Y105.978 E0.01944
G1 X107.082 Y107.438 E0.07114
G1 X107.494 Y108.041 E0.02527
G1 X107.748 Y108.683 E0.02389
G1 X107.824 Y109.132 E0.01574
G1 X109.329 Y109.138 E0.05206
G1 X109.916 Y109.234 E0.02057
G1 X110.462 Y109.428 E0.02005
G1 X110.984 Y109.728 E0.0208
G1 X111.419 Y110.096 E0.01971
G1 X111.819 Y110.583 E0.02182
G1 X112.099 Y111.098 E0.02026
G1 X112.268 Y111.593 E0.01809
G1 X112.365 Y112.21 E0.02158
G1 X112.371 Y118.151 E0.20548
G1 X112.282 Y118.703 E0.01936
G1 X112.079 Y119.259 E0.02046
G1 X111.645 Y119.916 E0.02722
G1 X107.42 Y124.14 E0.20665
G1 X106.918 Y124.494 E0.02123
G1 X106.369 Y124.735 E0.02073
