; generated by SuperSlicer 2.4 on 2023-07-13 at 15:06:53 UTC


;
;

;
;
; 

; external perimeters extrusion width = 0.46mm
; perimeters extrusion width = 0.46mm
; infill extrusion width = 0.46mm
; solid infill extrusion width = 0.56mm
; top infill extrusion width = 0.40mm
; support material extrusion width = 0.46mm
; first layer extrusion width = 0.50mm

; object:{"name":"wall_mount","id":"wall_mount.stl id:0 copy 0","object_center":[112.500001,115.000000,0.000000],"boundingbox_center":[112.500001,115.000000,15.706704],"boundingbox_size":[130.308464,130.308464,31.412001]}
; plater:{"center":[112.500001,115.000000,0.000000],"boundingbox_center":[112.500001,115.000000,15.706704],"boundingbox_size":[130.308464,130.308464,31.412001]}

M73 P0 R71


; Pre-Processed for Cancel-Object support by preprocess_cancellation v0.2.0
; 1 known objects
EXCLUDE_OBJECT_DEFINE NAME=wall_mount_stl_id_0_copy_0 CENTER=112.545,115.061 POLYGON=[[47.576,50.076],[47.576,179.924],[177.424,179.924],[177.424,50.076]]
;TYPE:Custom
; custom gcode: start_gcode
;M190 S50
;M109 S35 ; uncomment to remove set&wait temp gcode added automatically after this start gcode
;print_start EXTRUDER_TEMP=190 BED_TEMP=63 CHAMBER=35

SET_PRINT_STATS_INFO TOTAL_LAYER=112
print_start EXTRUDER_TEMP=190 BED_TEMP=63 CHAMBER=35 AREA_START=38.9869,41.4869 AREA_END=186.013,188.513
; custom gcode end: start_gcode
M107
G21 ; set units to millimeters
G90 ; use absolute coordinates
M83 ; use relative distances for extrusion
; custom gcode: start_filament_gcode
; Filament gcode
; Macro syntax: https://help.prusa3d.com/article/macros_1775

; Set pressure advance per-filament
;SET_PRESSURE_ADVANCE ADVANCE=0.0x

; Set pressure advance per-filament for different nozzle sizes
;SET_PRESSURE_ADVANCE ADVANCE=0.0x
;

; custom gcode end: start_filament_gcode
;_TOOLCHANGE 0
M104 S190 ; set temperature
M109 S190 ; set temperature and wait for it to be reached
M190 S63 ; set bed temperature and wait for it to be reached
;LAYER_CHANGE
;Z:0.2
;HEIGHT:0.2
; custom gcode: before_layer_gcode
TIMELAPSE_TAKE_FRAME
; custom gcode end: before_layer_gcode

G1 Z0.2 F15000
; custom gcode: layer_gcode
;

SET_PRINT_STATS_INFO CURRENT_LAYER=1
; custom gcode end: layer_gcode

G92 E0
M73 P2 R69
G1 E-0.9 F1800
M204 S1500
G1 X73.486 Y73.486 F15000
G1 E0.9 F1800
;TYPE:Skirt
;WIDTH:0.46
G1 X44.582 Y102.39 E1.29004
G1 X43.462 Y103.632 E0.05277
G1 X42.035 Y105.644 E0.07784
G1 X41.08 Y107.422 E0.06371
G1 X40.484 Y108.865 E0.04927
G1 X39.805 Y111.22 E0.07734
G1 X39.49 Y113.217 E0.0638
G1 X39.403 Y114.776 E0.04928
G1 X39.541 Y117.236 E0.07775
G1 X39.902 Y119.208 E0.06328
G1 X40.485 Y121.144 E0.06382
G1 X41.28 Y122.993 E0.06352
G1 X42.275 Y124.738 E0.06338
G1 X43.463 Y126.368 E0.06365
G1 X44.583 Y127.611 E0.05282
G1 X99.89 Y182.918 E2.46842
G1 X101.132 Y184.038 E0.05277
G1 X103.144 Y185.465 E0.07784
G1 X104.913 Y186.416 E0.0634
G1 X106.357 Y187.016 E0.04934
G1 X108.723 Y187.695 E0.07768
G1 X110.717 Y188.01 E0.0637
G1 X112.276 Y188.097 E0.04928
G1 X114.742 Y187.958 E0.07795
G1 X116.706 Y187.597 E0.06303
G1 X118.643 Y187.016 E0.06381
G1 X120.493 Y186.22 E0.06358
G1 X122.238 Y185.225 E0.06338
G1 X123.868 Y184.038 E0.06363
G1 X125.11 Y182.918 E0.05277
G1 X180.417 Y127.611 E2.46842
M73 P3 R69
G1 X181.537 Y126.368 E0.05282
G1 X182.965 Y124.356 E0.07786
G1 X183.916 Y122.587 E0.0634
G1 X184.515 Y121.144 E0.04929
G1 X185.198 Y118.771 E0.07792
G1 X185.51 Y116.781 E0.06358
G1 X185.597 Y115.224 E0.04921
G1 X185.458 Y112.758 E0.07795
G1 X185.095 Y110.785 E0.06333
G1 X184.516 Y108.865 E0.06327
G1 X183.721 Y107.009 E0.06371
G1 X182.725 Y105.262 E0.06348
G1 X181.538 Y103.632 E0.06363
G1 X180.418 Y102.39 E0.05277
G1 X124.949 Y46.93 E2.47548
G1 X123.511 Y45.678 E0.06017
G1 X122.238 Y44.775 E0.04925
G1 X120.078 Y43.58 E0.07791
G1 X118.636 Y42.984 E0.04922
G1 X116.717 Y42.404 E0.06328
G1 X114.281 Y41.99 E0.07797
G1 X112.276 Y41.903 E0.06335
G1 X110.264 Y42.041 E0.06363
G1 X108.283 Y42.404 E0.06357
G1 X106.364 Y42.984 E0.06328
G1 X104.509 Y43.779 E0.06366
G1 X102.762 Y44.775 E0.06348
G1 X101.132 Y45.963 E0.06365
G1 X99.889 Y47.083 E0.05282
G1 X73.486 Y73.486 E1.17839
G1 X73.783 Y73.783 F15000
G1 F1800
G1 X44.739 Y102.831 E1.29637
G1 X43.518 Y104.23 E0.05861
G1 X42.399 Y105.846 E0.06199
G1 X41.465 Y107.582 E0.06222
G1 X40.869 Y109.025 E0.04927
G1 X40.216 Y111.29 E0.07442
G1 X39.906 Y113.24 E0.0623
G1 X39.82 Y114.799 E0.04928
G1 X39.952 Y117.166 E0.07481
G1 X40.303 Y119.093 E0.06182
G1 X40.87 Y120.984 E0.06232
G1 X41.645 Y122.791 E0.06206
G1 X42.615 Y124.497 E0.06191
G1 X43.773 Y126.09 E0.06216
G1 X44.878 Y127.316 E0.05209
G1 X100.331 Y182.761 E2.47476
G1 X101.73 Y183.982 E0.05861
G1 X103.346 Y185.101 E0.06199
G1 X105.073 Y186.031 E0.06193
G1 X106.517 Y186.63 E0.04934
G1 X108.793 Y187.284 E0.07473
G1 X110.74 Y187.594 E0.0622
G1 X112.299 Y187.68 E0.04928
G1 X114.671 Y187.547 E0.07499
G1 X116.592 Y187.196 E0.0616
G1 X118.483 Y186.63 E0.0623
G1 X120.291 Y185.855 E0.06211
G1 X121.997 Y184.885 E0.06191
G1 X123.59 Y183.727 E0.06215
G1 X124.815 Y182.623 E0.05204
G1 X180.259 Y127.171 E2.47475
G1 X181.482 Y125.77 E0.05869
G1 X182.601 Y124.154 E0.062
G1 X183.531 Y122.427 E0.06193
G1 X184.13 Y120.984 E0.04929
G1 X184.786 Y118.701 E0.07497
G1 X185.094 Y116.758 E0.06209
G1 X185.18 Y115.201 E0.04921
G1 X185.047 Y112.829 E0.07499
G1 X184.694 Y110.9 E0.06187
G1 X184.131 Y109.025 E0.0618
G1 X183.356 Y107.211 E0.06222
G1 X182.385 Y105.503 E0.06202
G1 X181.227 Y103.91 E0.06215
G1 X180.123 Y102.685 E0.05204
G1 X124.671 Y47.241 E2.47475
G1 X123.27 Y46.018 E0.05869
G1 X121.997 Y45.115 E0.04925
G1 X119.918 Y43.965 E0.07496
G1 X118.477 Y43.37 E0.04922
G1 X116.601 Y42.805 E0.06182
G1 X114.258 Y42.406 E0.07501
G1 X112.299 Y42.32 E0.06189
G1 X110.334 Y42.452 E0.06214
G1 X108.399 Y42.805 E0.06209
G1 X106.523 Y43.37 E0.06182
G1 X104.711 Y44.144 E0.06217
G1 X103.003 Y45.115 E0.06202
G1 X101.41 Y46.273 E0.06216
G1 X100.184 Y47.378 E0.05209
G1 X73.783 Y73.783 E1.17839
G1 X74.078 Y74.078 F15000
G1 F1800
G1 X45.05 Y103.109 E1.29564
G1 X43.858 Y104.472 E0.05713
G1 X42.764 Y106.047 E0.06053
G1 X41.851 Y107.741 E0.06072
G1 X41.254 Y109.184 E0.04927
G1 X40.628 Y111.361 E0.0715
G1 X40.323 Y113.263 E0.0608
G1 X40.236 Y114.822 E0.04928
G1 X40.363 Y117.096 E0.07187
G1 X40.704 Y118.978 E0.06036
G1 X41.255 Y120.824 E0.06082
G1 X42.01 Y122.589 E0.06059
G1 X42.955 Y124.256 E0.06045
G1 X44.084 Y125.812 E0.06068
G1 X45.173 Y127.021 E0.05137
G1 X100.609 Y182.45 E2.47403
G1 X101.972 Y183.642 E0.05713
G1 X103.547 Y184.736 E0.06053
G1 X105.233 Y185.646 E0.06046
G1 X106.677 Y186.245 E0.04934
G1 X108.864 Y186.873 E0.07179
G1 X110.763 Y187.177 E0.0607
G1 X112.322 Y187.264 E0.04928
G1 X114.601 Y187.136 E0.07203
G1 X116.477 Y186.795 E0.06017
G1 X118.323 Y186.245 E0.06079
G1 X120.089 Y185.49 E0.06064
G1 X121.756 Y184.545 E0.06045
G1 X123.311 Y183.416 E0.06066
G1 X124.52 Y182.328 E0.05131
G1 X179.949 Y126.892 E2.47402
M73 P3 R68
G1 X181.142 Y125.528 E0.0572
G1 X182.236 Y123.953 E0.06053
G1 X183.146 Y122.267 E0.06046
G1 X183.745 Y120.824 E0.04929
G1 X184.375 Y118.631 E0.07202
G1 X184.677 Y116.735 E0.0606
G1 X184.764 Y115.178 E0.04921
G1 X184.636 Y112.899 E0.07203
G1 X184.293 Y111.015 E0.06042
G1 X183.746 Y109.184 E0.06033
G1 X182.991 Y107.413 E0.06073
G1 X182.045 Y105.744 E0.06055
G1 X180.916 Y104.189 E0.06066
G1 X179.828 Y102.98 E0.05131
G1 X124.392 Y47.551 E2.47402
G1 X123.028 Y46.358 E0.0572
G1 X121.756 Y45.455 E0.04925
G1 X119.759 Y44.351 E0.072
G1 X118.318 Y43.755 E0.04922
G1 X116.486 Y43.206 E0.06036
G1 X114.235 Y42.823 E0.07205
G1 X112.322 Y42.736 E0.06043
G1 X110.404 Y42.863 E0.06065
G1 X108.514 Y43.206 E0.06062
G1 X106.682 Y43.755 E0.06036
G1 X104.913 Y44.509 E0.06068
G1 X103.244 Y45.455 E0.06055
G1 X101.688 Y46.584 E0.06068
G1 X100.479 Y47.673 E0.05137
G1 X74.078 Y74.078 E1.17839
G1 E-0.9
; acceleration to travel
M204 S3500
G1 X75.948 Y75.948 F15000
; decel to extrusion
M204 S1500
G1 X76.75 Y76.75
; end travel
G1 E0.9 F1800
;WIDTH:0.5
G1 X103.105 Y50.393 E1.28912
G1 X104.179 Y49.434 E0.04978
G1 X105.374 Y48.583 E0.05073
G1 X106.653 Y47.868 E0.05069
G1 X107.993 Y47.304 E0.05029
G1 X109.433 Y46.875 E0.05198
G1 X110.896 Y46.614 E0.05138
G1 X112.608 Y46.518 E0.05932
G1 X114.036 Y46.606 E0.04945
G1 X115.452 Y46.849 E0.04972
G1 X116.835 Y47.243 E0.04972
G1 X118.182 Y47.789 E0.05028
G1 X119.681 Y48.618 E0.05925
G1 X120.801 Y49.419 E0.04761
G1 X121.823 Y50.325 E0.04722
G1 X177.108 Y105.607 E2.70403
G1 X178.066 Y106.679 E0.04971
G1 X178.917 Y107.874 E0.05073
G1 X179.632 Y109.153 E0.05069
G1 X180.196 Y110.494 E0.05031
G1 X180.624 Y111.933 E0.05194
G1 X180.885 Y113.393 E0.05129
G1 X180.982 Y115.091 E0.05884
G1 X180.901 Y116.478 E0.04805
G1 X180.672 Y117.86 E0.04844
G1 X180.198 Y119.508 E0.0593
G1 X179.642 Y120.825 E0.04943
G1 X178.945 Y122.081 E0.04969
G1 X178.117 Y123.256 E0.04974
G1 X177.177 Y124.321 E0.04911
G1 X121.893 Y179.609 E2.70411
G1 X120.821 Y180.566 E0.04971
G1 X119.627 Y181.416 E0.05068
G1 X118.35 Y182.13 E0.05063
G1 X117.011 Y182.697 E0.05027
G1 X115.564 Y183.124 E0.05221
G1 X114.107 Y183.386 E0.05118
G1 X112.408 Y183.482 E0.05884
G1 X111.02 Y183.4 E0.04811
G1 X109.636 Y183.17 E0.04851
G1 X107.993 Y182.698 E0.05915
G1 X106.675 Y182.142 E0.04946
G1 X105.419 Y181.445 E0.04968
G1 X104.244 Y180.617 E0.0497
G1 X103.181 Y179.679 E0.04905
G1 X47.893 Y124.395 E2.70414
M73 P4 R68
G1 X46.936 Y123.322 E0.04972
G1 X46.085 Y122.129 E0.05068
G1 X45.37 Y120.851 E0.05065
G1 X44.804 Y119.512 E0.05028
G1 X44.374 Y118.063 E0.05226
G1 X44.114 Y116.605 E0.05124
G1 X44.018 Y114.934 E0.05788
G1 X44.103 Y113.491 E0.05
G1 X44.344 Y112.071 E0.0498
G1 X44.742 Y110.667 E0.05047
G1 X45.289 Y109.318 E0.05035
G1 X46.118 Y107.819 E0.05925
G1 X46.919 Y106.699 E0.04761
G1 X47.823 Y105.679 E0.04715
G1 X76.75 Y76.75 E1.41492
G1 X77.073 Y77.073 F15000
G1 F1800
G1 X103.424 Y50.721 E1.28889
G1 X104.474 Y49.784 E0.04867
G1 X105.628 Y48.963 E0.04899
G1 X106.865 Y48.274 E0.04895
G1 X108.159 Y47.73 E0.04854
G1 X109.551 Y47.317 E0.05023
G1 X110.962 Y47.067 E0.04957
G1 X112.594 Y46.975 E0.05652
G1 X113.971 Y47.059 E0.04771
G1 X115.339 Y47.292 E0.048
G1 X116.698 Y47.679 E0.04886
G1 X117.997 Y48.208 E0.04852
G1 X119.426 Y48.998 E0.05649
G1 X120.507 Y49.769 E0.0459
G1 X121.514 Y50.662 E0.04657
G1 X176.781 Y105.925 E2.7031
G1 X177.716 Y106.974 E0.0486
G1 X178.537 Y108.128 E0.04899
G1 X179.226 Y109.365 E0.04895
G1 X179.77 Y110.659 E0.04856
G1 X180.182 Y112.051 E0.05019
G1 X180.433 Y113.46 E0.0495
G1 X180.525 Y115.078 E0.05605
G1 X180.445 Y116.44 E0.04718
G1 X180.223 Y117.772 E0.04672
G1 X179.771 Y119.343 E0.05654
G1 X179.236 Y120.614 E0.04769
G1 X178.565 Y121.828 E0.04798
G1 X177.75 Y122.983 E0.04887
G1 X176.839 Y124.013 E0.04757
G1 X121.575 Y179.281 E2.70316
G1 X120.526 Y180.216 E0.0486
G1 X119.373 Y181.036 E0.04895
G1 X118.138 Y181.725 E0.0489
G1 X116.845 Y182.271 E0.04853
G1 X115.447 Y182.682 E0.05043
G1 X114.04 Y182.933 E0.04941
G1 X112.422 Y183.025 E0.05605
G1 X111.059 Y182.945 E0.04723
G1 X109.725 Y182.721 E0.04679
G1 X108.158 Y182.272 E0.05639
G1 X106.864 Y181.726 E0.04856
G1 X105.652 Y181.052 E0.04797
G1 X104.518 Y180.251 E0.048
G1 X103.489 Y179.341 E0.04751
G1 X48.221 Y124.076 E2.70319
G1 X47.285 Y123.027 E0.04861
G1 X46.465 Y121.874 E0.04894
G1 X45.776 Y120.639 E0.04892
G1 X45.23 Y119.346 E0.04854
G1 X44.816 Y117.946 E0.05049
G1 X44.567 Y116.538 E0.04946
G1 X44.475 Y114.947 E0.05511
G1 X44.556 Y113.555 E0.04824
G1 X44.793 Y112.16 E0.04893
G1 X45.178 Y110.804 E0.04875
G1 X45.708 Y109.503 E0.04859
G1 X46.498 Y108.074 E0.05649
G1 X47.269 Y106.993 E0.0459
G1 X48.161 Y105.987 E0.04649
G1 X77.073 Y77.073 E1.41421
G1 X77.396 Y77.396 F15000
G1 F1800
G1 X103.743 Y51.049 E1.28867
G1 X104.769 Y50.134 E0.04755
G1 X105.883 Y49.343 E0.04724
G1 X107.076 Y48.679 E0.04721
G1 X108.324 Y48.156 E0.0468
G1 X109.668 Y47.759 E0.04849
G1 X111.028 Y47.519 E0.04777
G1 X112.58 Y47.432 E0.05374
G1 X113.931 Y47.514 E0.04682
G1 X115.25 Y47.74 E0.04627
G1 X116.56 Y48.115 E0.04714
G1 X117.812 Y48.626 E0.04677
G1 X119.172 Y49.378 E0.05373
G1 X120.231 Y50.134 E0.04503
G1 X121.205 Y50.999 E0.04507
G1 X176.453 Y106.244 E2.70218
G1 X177.367 Y107.269 E0.04748
G1 X178.157 Y108.383 E0.04724
G1 X178.821 Y109.576 E0.04721
G1 X179.344 Y110.824 E0.04681
G1 X179.74 Y112.168 E0.04844
G1 X179.981 Y113.526 E0.04772
G1 X180.068 Y115.064 E0.05329
G1 X179.992 Y116.377 E0.04545
G1 X179.774 Y117.684 E0.04584
G1 X179.345 Y119.178 E0.05377
G1 X178.82 Y120.425 E0.0468
G1 X178.171 Y121.595 E0.04627
G1 X177.384 Y122.709 E0.04715
G1 X176.502 Y123.704 E0.04602
G1 X121.256 Y178.953 E2.70223
G1 X120.231 Y179.866 E0.04748
G1 X119.118 Y180.656 E0.0472
G1 X117.927 Y181.319 E0.04717
G1 X116.68 Y181.844 E0.04678
G1 X115.33 Y182.24 E0.04866
G1 X113.974 Y182.481 E0.04763
G1 X112.435 Y182.568 E0.05329
G1 X111.122 Y182.492 E0.04549
G1 X109.813 Y182.273 E0.04591
G1 X108.322 Y181.845 E0.05364
G1 X107.075 Y181.32 E0.04679
G1 X105.885 Y180.658 E0.04711
G1 X104.793 Y179.885 E0.04628
G1 X103.798 Y179.004 E0.04598
G1 X48.549 Y123.757 E2.70225
G1 X47.65 Y122.752 E0.04665
G1 X46.858 Y121.64 E0.04721
G1 X46.192 Y120.45 E0.04718
G1 X45.656 Y119.18 E0.04765
G1 X45.258 Y117.829 E0.0487
G1 X45.019 Y116.472 E0.04767
G1 X44.932 Y114.961 E0.05236
G1 X45.011 Y113.594 E0.04734
G1 X45.241 Y112.25 E0.04718
G1 X45.615 Y110.942 E0.04704
G1 X46.126 Y109.688 E0.04683
G1 X46.878 Y108.328 E0.05374
G1 X47.634 Y107.269 E0.04502
G1 X48.498 Y106.296 E0.045
G1 X77.396 Y77.396 E1.41351
G1 X77.719 Y77.719 F15000
G1 F1800
G1 X104.061 Y51.376 E1.28844
G1 X105.044 Y50.499 E0.04556
G1 X106.137 Y49.723 E0.04637
G1 X107.286 Y49.085 E0.04547
G1 X108.488 Y48.583 E0.04505
G1 X109.785 Y48.201 E0.04675
G1 X111.094 Y47.972 E0.04597
G1 X112.566 Y47.889 E0.05098
G1 X113.866 Y47.967 E0.04506
G1 X115.16 Y48.188 E0.0454
G1 X116.422 Y48.551 E0.0454
G1 X117.627 Y49.044 E0.04502
G1 X118.917 Y49.757 E0.05099
G1 X119.956 Y50.499 E0.04415
G1 X120.897 Y51.336 E0.04356
G1 X176.125 Y106.563 E2.70127
G1 X177.001 Y107.544 E0.04549
G1 X177.777 Y108.637 E0.04636
G1 X178.415 Y109.786 E0.04547
G1 X178.917 Y110.989 E0.04506
G1 X179.298 Y112.284 E0.0467
G1 X179.528 Y113.592 E0.04594
G1 X179.611 Y115.051 E0.05054
G1 X179.537 Y116.338 E0.04457
G1 X179.326 Y117.596 E0.04411
G1 X178.918 Y119.014 E0.05103
G1 X178.414 Y120.215 E0.04504
G1 X177.777 Y121.362 E0.0454
G1 X177.019 Y122.434 E0.04542
G1 X176.164 Y123.396 E0.04448
G1 X120.937 Y178.625 E2.7013
G1 X119.956 Y179.501 E0.0455
G1 X118.885 Y180.263 E0.04546
G1 X117.738 Y180.903 E0.04543
G1 X116.515 Y181.418 E0.0459
G1 X115.214 Y181.798 E0.04687
G1 X113.908 Y182.028 E0.04587
G1 X112.449 Y182.111 E0.05054
G1 X111.161 Y182.036 E0.04461
G1 X109.902 Y181.824 E0.04418
G1 X108.487 Y181.418 E0.05091
G1 X107.286 Y180.915 E0.04503
G1 X106.138 Y180.278 E0.0454
G1 X105.086 Y179.535 E0.04454
G1 X104.106 Y178.666 E0.04531
G1 X48.876 Y123.439 E2.70131
G1 X47.999 Y122.457 E0.04554
G1 X47.237 Y121.386 E0.04547
G1 X46.597 Y120.238 E0.04545
G1 X46.082 Y119.015 E0.0459
G1 X45.701 Y117.713 E0.04692
G1 X45.472 Y116.406 E0.04589
G1 X45.389 Y114.948 E0.05052
G1 X45.467 Y113.634 E0.04553
G1 X45.69 Y112.339 E0.04543
G1 X46.051 Y111.08 E0.04532
G1 X46.544 Y109.873 E0.04507
G1 X47.257 Y108.583 E0.05099
G1 X47.999 Y107.544 E0.04415
G1 X48.835 Y106.605 E0.04349
G1 X77.719 Y77.719 E1.41283
M73 P5 R67
G1 X78.043 Y78.042 F15000
G1 F1800
G1 X104.38 Y51.704 E1.28822
G1 X105.319 Y50.864 E0.04358
G1 X106.37 Y50.116 E0.04461
G1 X107.474 Y49.502 E0.0437
G1 X108.653 Y49.01 E0.04417
G1 X109.901 Y48.643 E0.04499
G1 X111.159 Y48.424 E0.04417
G1 X112.552 Y48.347 E0.04825
G1 X113.802 Y48.419 E0.0433
G1 X115.046 Y48.631 E0.04366
G1 X116.26 Y48.979 E0.04367
G1 X117.441 Y49.462 E0.04413
G1 X118.662 Y50.137 E0.04826
G1 X119.661 Y50.848 E0.04241
G1 X120.588 Y51.673 E0.0429
G1 X175.797 Y106.881 E2.70036
G1 X176.636 Y107.819 E0.04351
G1 X177.384 Y108.87 E0.04461
G1 X177.998 Y109.974 E0.0437
G1 X178.491 Y111.153 E0.04418
G1 X178.855 Y112.4 E0.04494
G1 X179.076 Y113.658 E0.04416
G1 X179.154 Y115.038 E0.04781
G1 X179.084 Y116.275 E0.04283
G1 X178.877 Y117.507 E0.04323
G1 X178.492 Y118.849 E0.04829
G1 X177.998 Y120.026 E0.04414
